!!!OTL: 818b. Kurzer Bescheid (Fenstergang).
!!!ODT: 1880
!!!ARE: Europa, Mitteleuropa, Deutschland, Hessen; Frankfurt a.M.; Oberhessen
!!!SCT: E0818A
!!!TXL: @@DE
!!!YEM: Copyright 1995, estate of Helmut Schaffrath.
**kern	**text
*ICvox	*
*M4/4	*
*met(c)	*
*k[f#c#g#]	*
*A:	*
!LO:TX:a:t=Umgegend v. Frankfurt a. M., Oberheſſen 1880.	!
{4e	Jch
=1	=1
4.a	gieng
8e	ein-
4c#	-mal
4e	ſpa-
=2	=2
(4.a	-ʒie-
8g#)	.
4a}	-ren,
{4cc#	ſpa-
=3	=3
4.b/	-ʒie-
8a	-ren
4g#	bei
4a	der
=4	=4
2b	Nacht,
4r}	.
{4e	Jch
=5	=5
4.a	gieng
8e	ein-
4c#	-mal
4e	ſpa-
=6	=6
(4.a	-ʒie-
8g#)	.
4a}	-ren,
{4cc#	ſpa-
=7	=7
4.b/	-ʒie-
8a	-ren
4g#	bei
4a	der
=8	=8
2b	Nacht,
4r}	.
{4a	gieng
=9	=9
4a	vor
4cc#	Fein-
4cc#	-lieb-
4cc#	-chens
=10	=10
(4.cc#	Fen-
8dd)	.
4ee}	-ſter,
{4cc#	gieng
=11	=11
4cc#	vor
4b	Fein-
4b	-lieb-
4b	-chens
=12	=12
(4.b	Fen-
8cc#)	.
4dd}	-ſter
{4ee	Schatʒ,
=13	=13
4cc#	ſchläfſt
4cc#	du
4b	o-
4b	-der
=14	=14
2a	wachſt?
4r}	.
==	==
!!!AGN: Kilt - Lied
!!!ONB: ESAC (Essen Associative Code) Database: ERK2
!!!AMT: simple quadruple
!!!AIN: vox
!!!EED: Helmut Schaffrath
!!!EEV: 1.0
!!!GTL: Tagelieder und Kiltgesaenge
!!!URL-scan: https://rosdok.uni-rostock.de/mcrviewer/recordIdentifier/rosdok_ppn745177662/iview2/phys_0630.iview2?x=193.8995864193107&y=338.78963914932683&scale=0.7029437510502773&rotation=0&layout=singlePageLayout
!!!ENC: Anna Maria Matuszewska
!!!EEV: 2024/12/18
*-	*-
